public/img/AboutUs/cycles-3.svg

<svg width="151" height="122" viewBox="0 0 151 122" fill="none" xmlns="http://www.w3.org/2000/svg">
<path d="M147.664 22.9312C147.319 22.2228 146.811 21.6069 146.18 21.135C145.55 20.6631 144.815 20.3487 144.039 20.2182C143.262 20.0876 142.465 20.1446 141.715 20.3845C140.965 20.6243 140.283 21.04 139.726 21.597L124.727 36.5956C124.116 37.1991 123.291 37.5375 122.431 37.5375C121.572 37.5375 120.747 37.1991 120.135 36.5956L113.544 30.0039C112.941 29.3912 112.603 28.566 112.603 27.7064C112.603 26.8468 112.941 26.0216 113.544 25.4089L128.463 10.4865C129.034 9.91571 129.456 9.21372 129.693 8.44195C129.93 7.67018 129.974 6.85215 129.821 6.0594C129.669 5.26665 129.325 4.52333 128.818 3.89447C128.312 3.26561 127.66 2.77036 126.918 2.45203C115.274 -2.53286 100.797 0.267475 91.7303 9.28134C83.8688 17.0842 81.5171 29.2209 85.2792 42.6215C85.4414 43.1966 85.4407 43.8055 85.2771 44.3802C85.1135 44.9549 84.7934 45.4729 84.3526 45.8763L33.6533 92.9836C31.9737 94.4947 30.6193 96.3318 29.6726 98.3832C28.726 100.435 28.2069 102.657 28.147 104.916C28.0871 107.174 28.4876 109.421 29.3242 111.52C30.1607 113.619 31.4158 115.525 33.013 117.123C34.6102 118.721 36.5159 119.977 38.6142 120.815C40.7125 121.652 42.9593 122.054 45.2178 121.995C47.4763 121.936 49.6992 121.418 51.7511 120.473C53.803 119.527 55.6408 118.174 57.1527 116.495L80.9174 91.1011L104.682 65.7074C105.08 65.2766 105.588 64.9623 106.151 64.7985C106.714 64.6347 107.311 64.6276 107.878 64.7779C121.074 68.2967 133.096 65.9508 140.846 58.3269C145.303 53.9284 148.414 47.7208 149.611 40.8181C150.734 34.3085 150.024 27.787 147.664 22.9312Z" fill="white"/>
<path d="M128.238 96.8859C124.15 93.4874 115.418 85.6259 106.518 77.4682L87.1446 98.1732C95.4254 106.97 102.92 115.136 106.204 118.957L106.225 118.981C107.014 119.884 107.979 120.616 109.061 121.132C110.143 121.648 111.32 121.938 112.518 121.983H112.84C115.144 121.977 117.354 121.07 118.998 119.456L119.019 119.435L128.821 109.65C129.673 108.801 130.337 107.783 130.773 106.661C131.208 105.54 131.404 104.34 131.349 103.138C131.294 101.937 130.988 100.76 130.452 99.6833C129.916 98.6066 129.161 97.6538 128.235 96.8859H128.238ZM34.7592 48.8373C34.7637 47.7245 34.4591 46.6322 33.8795 45.6822C33.7983 45.5537 33.7548 45.405 33.7542 45.253C33.7536 45.101 33.7958 44.9519 33.876 44.8228C33.9561 44.6937 34.071 44.5897 34.2075 44.5229C34.344 44.456 34.4966 44.429 34.6477 44.4448H34.6653C34.9116 44.4712 36.2282 44.6618 38.0961 45.7966C39.4831 46.6381 43.4417 49.3388 50.3326 56.2179C50.2592 58.5609 51.0082 60.8556 52.4497 62.7042L71.8703 44.6559C70.1502 43.0272 67.9027 42.0699 65.5365 41.9582C65.5146 41.9339 65.494 41.9085 65.4749 41.8819L65.2843 41.6796L58.0885 31.7567C57.2885 30.6705 56.7639 29.4065 56.5596 28.073C56.3553 26.7395 56.4775 25.3764 56.9156 24.1005C57.5756 22.2002 58.7761 20.5339 60.3698 19.3062C62.0383 18.0131 65.8033 16.456 69.0025 16.1921C70.4927 16.0693 71.9929 16.1621 73.4566 16.4678C74.1578 16.6372 74.8489 16.8457 75.5268 17.0923C75.7322 17.1691 75.9429 17.2308 76.1573 17.2771C77.088 17.4833 78.0595 17.401 78.9424 17.0413C79.8253 16.6815 80.5776 16.0614 81.0992 15.2634C81.6208 14.4654 81.8869 13.5274 81.8621 12.5744C81.8373 11.6214 81.5228 10.6985 80.9604 9.92875C80.8841 9.82612 80.5733 9.40387 80.1129 8.83501C79.2538 7.75175 78.3127 6.73614 77.2979 5.79715C74.9081 3.63899 68.7151 1.098e-05 60.5839 1.098e-05C55.9306 -0.00361836 51.3204 0.892516 47.0074 2.63907C35.7561 7.16947 28.3961 13.3654 25.0122 16.6525L24.9858 16.6789C22.7088 18.927 20.6006 21.34 18.6785 23.8982C17.9518 24.923 17.4794 26.106 17.3003 27.3495C17.2166 27.8785 16.9385 28.3573 16.5203 28.6919C16.1021 29.0266 15.574 29.1931 15.0395 29.1587H14.7199C13.1214 29.1481 11.5835 29.77 10.4417 30.8888L1.80607 39.3074L1.71224 39.4012C0.625959 40.5298 0.0133035 42.0316 0.000214121 43.598C-0.0128752 45.1643 0.574596 46.6762 1.64186 47.8228C1.69757 47.8814 1.75036 47.9371 1.809 47.9928L15.7374 61.5782C16.885 62.7026 18.4266 63.3339 20.0332 63.3375C21.6317 63.3482 23.1696 62.7263 24.3114 61.6075L32.9499 53.1654C33.5262 52.6021 33.9834 51.9287 34.2942 51.1851C34.605 50.4416 34.7631 49.6432 34.7592 48.8373Z" fill="white"/>
</svg>

<svg width="151" height="122" fill="none" xmlns="http://www.w3.org/2000/svg"><path d="M147.664 22.931a4.945 4.945 0 0 0-5.949-2.547c-.75.24-1.432.656-1.989 1.213l-14.999 14.999a3.267 3.267 0 0 1-4.592 0l-6.591-6.592a3.275 3.275 0 0 1 0-4.595l14.919-14.922a4.941 4.941 0 0 0-1.545-8.035C115.274-2.533 100.797.267 91.73 9.282c-7.861 7.802-10.213 19.939-6.45 33.34a3.226 3.226 0 0 1-.927 3.254l-50.7 47.108a16.645 16.645 0 0 0 4.961 27.831 16.65 16.65 0 0 0 18.539-4.32l23.764-25.394 23.765-25.394a3.228 3.228 0 0 1 3.196-.93c13.196 3.52 25.218 1.174 32.968-6.45 4.457-4.399 7.568-10.606 8.765-17.509 1.123-6.51.413-13.031-1.947-17.887Z" fill="#fff"/><path d="M128.238 96.886c-4.088-3.399-12.82-11.26-21.72-19.418L87.145 98.173c8.28 8.797 15.775 16.963 19.059 20.784l.021.024a8.791 8.791 0 0 0 6.293 3.002h.322a8.823 8.823 0 0 0 6.158-2.527l.021-.021 9.802-9.785a8.63 8.63 0 0 0 2.528-6.512 8.64 8.64 0 0 0-3.114-6.252h.003ZM34.759 48.837a6.011 6.011 0 0 0-.88-3.155.81.81 0 0 1 .769-1.237h.017c.247.026 1.563.217 3.431 1.352 1.387.841 5.346 3.542 12.237 10.42a10.037 10.037 0 0 0 2.117 6.487l19.42-18.048a9.89 9.89 0 0 0-6.334-2.698.885.885 0 0 1-.061-.076l-.19-.202-7.196-9.923a8.342 8.342 0 0 1-1.173-7.657 10.33 10.33 0 0 1 3.454-4.794c1.668-1.293 5.433-2.85 8.633-3.114 1.49-.123 2.99-.03 4.454.276.7.17 1.392.378 2.07.624a4.692 4.692 0 0 0 5.434-7.164c-.077-.102-.388-.524-.848-1.093a26.976 26.976 0 0 0-2.815-3.038C74.908 3.64 68.715 0 60.584 0a36.096 36.096 0 0 0-13.577 2.64c-11.25 4.53-18.61 10.725-21.995 14.012l-.026.027a65.087 65.087 0 0 0-6.308 7.22 7.918 7.918 0 0 0-1.378 3.45 2.15 2.15 0 0 1-2.26 1.81h-.32a6.055 6.055 0 0 0-4.278 1.73l-8.636 8.418-.094.094a6.126 6.126 0 0 0-.07 8.422c.056.058.108.114.167.17l13.928 13.585a6.158 6.158 0 0 0 4.296 1.76 6.055 6.055 0 0 0 4.278-1.73l8.639-8.443a6.01 6.01 0 0 0 1.81-4.328Z" fill="#fff"/></svg>
